Numix/16/emotes/face-pirate.svg

<?xml version="1.0" encoding="UTF-8" standalone="no"?>
<svg
   xmlns:dc="http://purl.org/dc/elements/1.1/"
   xmlns:cc="http://creativecommons.org/ns#"
   xmlns:rdf="http://www.w3.org/1999/02/22-rdf-syntax-ns#"
   xmlns:svg="http://www.w3.org/2000/svg"
   xmlns="http://www.w3.org/2000/svg"
   xmlns:sodipodi="http://sodipodi.sourceforge.net/DTD/sodipodi-0.dtd"
   xmlns:inkscape="http://www.inkscape.org/namespaces/inkscape"
   width="16px"
   height="16px"
   viewBox="0 0 12 12"
   version="1.1"
   id="svg2731"
   inkscape:version="0.91 r"
   sodipodi:docname="face-pirate.svg">
  <metadata
     id="metadata2752">
    <rdf:RDF>
      <cc:Work
         rdf:about="">
        <dc:format>image/svg+xml</dc:format>
        <dc:type
           rdf:resource="http://purl.org/dc/dcmitype/StillImage" />
      </cc:Work>
    </rdf:RDF>
  </metadata>
  <defs
     id="defs2750" />
  <sodipodi:namedview
     pagecolor="#ffffff"
     bordercolor="#666666"
     borderopacity="1"
     objecttolerance="10"
     gridtolerance="10"
     guidetolerance="10"
     inkscape:pageopacity="0"
     inkscape:pageshadow="2"
     inkscape:window-width="640"
     inkscape:window-height="480"
     id="namedview2748" />
  <g
     id="surface1">
    <path
       style=" stroke:none;fill-rule:nonzero;fill:rgb(100%,85.098039%,36.078431%);fill-opacity:1;"
       d="M 11.25 6 C 11.25 8.484375 8.898438 10.5 6 10.5 C 3.101562 10.5 0.75 8.484375 0.75 6 C 0.75 3.515625 3.097656 1.5 6 1.5 C 8.902344 1.5 11.25 3.515625 11.25 6 Z M 11.25 6 "
       id="path2734" />
    <path
       style=" stroke:none;fill-rule:nonzero;fill:rgb(38.823529%,38.823529%,38.823529%);fill-opacity:1;"
       d="M 7.875 7.125 C 7.738281 7.6875 6.972656 8.066406 6 8.066406 L 6 8.71875 C 7.117188 8.71875 8.066406 8.066406 8.25 7.125 Z M 7.875 7.125 "
       id="path2736" />
    <path
       style=" stroke:none;fill-rule:nonzero;fill:rgb(38.823529%,38.823529%,38.823529%);fill-opacity:1;"
       d="M 3.570312 4.289062 C 3.382812 4.433594 3.253906 4.664062 3.253906 4.921875 C 3.253906 5.363281 3.613281 5.71875 4.050781 5.71875 C 4.460938 5.71875 4.789062 5.414062 4.839844 5.019531 Z M 3.570312 4.289062 "
       id="path2738" />
    <path
       style=" stroke:none;fill-rule:nonzero;fill:rgb(38.823529%,38.823529%,38.823529%);fill-opacity:1;"
       d="M 8.398438 4.304688 L 7.113281 5.050781 C 7.171875 5.429688 7.5 5.71875 7.894531 5.71875 C 8.335938 5.71875 8.691406 5.363281 8.691406 4.921875 C 8.691406 4.671875 8.578125 4.453125 8.398438 4.304688 Z M 8.398438 4.304688 "
       id="path2740" />
    <path
       style=" stroke:none;fill-rule:nonzero;fill:rgb(27.058824%,27.058824%,27.058824%);fill-opacity:1;"
       d="M 7.332031 4.125 L 8.792969 4.125 C 9.113281 4.125 9.375 4.378906 9.375 4.6875 L 9.375 5.8125 C 9.375 6.121094 9.113281 6.375 8.792969 6.375 L 7.332031 6.375 C 7.011719 6.375 6.75 6.121094 6.75 5.8125 L 6.75 4.6875 C 6.75 4.378906 7.011719 4.125 7.332031 4.125 Z M 7.332031 4.125 "
       id="path2742" />
    <path
       style=" stroke:none;fill-rule:nonzero;fill:rgb(27.058824%,27.058824%,27.058824%);fill-opacity:1;"
       d="M 8.847656 5.0625 C 8.726562 5.0625 8.625 5.148438 8.625 5.25 C 8.625 5.351562 8.726562 5.4375 8.847656 5.4375 L 11.203125 5.4375 C 11.1875 5.3125 11.164062 5.183594 11.132812 5.0625 Z M 8.847656 5.0625 "
       id="path2744" />
    <path
       style=" stroke:none;fill-rule:nonzero;fill:rgb(27.058824%,27.058824%,27.058824%);fill-opacity:1;"
       d="M 5.609375 1.515625 C 5.472656 1.527344 5.335938 1.539062 5.203125 1.558594 L 7.480469 5.503906 L 7.804688 5.316406 Z M 5.609375 1.515625 "
       id="path2746" />
  </g>
</svg>

<svg xmlns="http://www.w3.org/2000/svg" width="16" height="16" viewBox="0 0 12 12">
 <g>
  <path d="m 11.25 6 c 0 2.484 -2.352 4.5 -5.25 4.5 c -2.898 0 -5.25 -2.02 -5.25 -4.5 c 0 -2.484 2.348 -4.5 5.25 -4.5 c 2.902 0 5.25 2.02 5.25 4.5 m 0 0" style="fill:#ffd85b;fill-opacity:1;stroke:none;fill-rule:nonzero"/>
  <path d="m 7.875 7.125 c -0.137 0.563 -0.902 0.941 -1.875 0.941 l 0 0.652 c 1.117 0 2.066 -0.652 2.25 -1.594 m -0.375 0" style="fill:#626262;fill-opacity:1;stroke:none;fill-rule:nonzero"/>
  <path d="m 3.57 4.289 c -0.188 0.145 -0.316 0.375 -0.316 0.633 c 0 0.441 0.359 0.797 0.797 0.797 c 0.41 0 0.738 -0.305 0.789 -0.699 m -1.27 -0.73" style="fill:#626262;fill-opacity:1;stroke:none;fill-rule:nonzero"/>
  <path d="m 8.398 4.305 l -1.285 0.746 c 0.059 0.379 0.387 0.668 0.781 0.668 c 0.441 0 0.797 -0.355 0.797 -0.797 c 0 -0.25 -0.113 -0.469 -0.293 -0.617 m 0 0" style="fill:#626262;fill-opacity:1;stroke:none;fill-rule:nonzero"/>
  <path d="m 7.332 4.125 l 1.461 0 c 0.32 0 0.582 0.254 0.582 0.563 l 0 1.125 c 0 0.309 -0.262 0.563 -0.582 0.563 l -1.461 0 c -0.32 0 -0.582 -0.254 -0.582 -0.563 l 0 -1.125 c 0 -0.309 0.262 -0.563 0.582 -0.563 m 0 0" style="fill:#454545;fill-opacity:1;stroke:none;fill-rule:nonzero"/>
  <path d="m 8.848 5.063 c -0.121 0 -0.223 0.086 -0.223 0.188 c 0 0.102 0.102 0.188 0.223 0.188 l 2.355 0 c -0.016 -0.125 -0.039 -0.254 -0.07 -0.375 m -2.285 0" style="fill:#454545;fill-opacity:1;stroke:none;fill-rule:nonzero"/>
  <path d="m 5.609 1.516 c -0.137 0.012 -0.273 0.023 -0.406 0.043 l 2.277 3.945 l 0.324 -0.188 m -2.195 -3.801" style="fill:#454545;fill-opacity:1;stroke:none;fill-rule:nonzero"/>
 </g>
</svg>
